newicons/remote_atv.svg

<?xml version="1.0" encoding="UTF-8" standalone="no"?>
<svg
   viewBox="0 0 48 48"
   version="1.1"
   id="svg1"
   sodipodi:docname="remote_atv.svg"
   inkscape:version="1.2.2 (b0a8486541, 2022-12-01)"
   xml:space="preserve"
   xmlns:inkscape="http://www.inkscape.org/namespaces/inkscape"
   xmlns:sodipodi="http://sodipodi.sourceforge.net/DTD/sodipodi-0.dtd"
   xmlns="http://www.w3.org/2000/svg"
   xmlns:svg="http://www.w3.org/2000/svg"><sodipodi:namedview
     id="namedview1"
     pagecolor="#505050"
     bordercolor="#eeeeee"
     borderopacity="1"
     inkscape:showpageshadow="0"
     inkscape:pageopacity="0"
     inkscape:pagecheckerboard="0"
     inkscape:deskcolor="#505050"
     inkscape:zoom="12.59534"
     inkscape:cx="5.7164001"
     inkscape:cy="21.754078"
     inkscape:window-width="1918"
     inkscape:window-height="1053"
     inkscape:window-x="0"
     inkscape:window-y="0"
     inkscape:window-maximized="1"
     inkscape:current-layer="svg1"
     showgrid="false" /><defs
     id="defs1"><style
       id="style1">.a { fill:none;stroke:#fff;stroke-linecap:round;stroke-linejoin:round; }
</style></defs><g
     id="g1677"><g
       id="g1661"><path
         style="fill:none;stroke:#ffffff;stroke-width:1;stroke-linecap:round;stroke-linejoin:round;stroke-dashoffset:3.6;stroke-opacity:1"
         d="m 19.864293,23.469435 h 8.271416 c 0.869395,0 1.569305,0.699799 1.569305,1.569057 v 15.892452 c 0,0.869257 -0.69991,1.569056 -1.569305,1.569056 h -8.271416 c -0.869396,0 -1.569306,-0.699799 -1.569306,-1.569056 V 25.038492 c 0,-0.869258 0.69991,-1.569057 1.569306,-1.569057 z"
         id="path1630" /><path
         style="fill:none;stroke:#ffffff;stroke-width:1;stroke-linecap:round;stroke-linejoin:round;stroke-dashoffset:3.6;stroke-opacity:1"
         d="M 26.646489,29.183371 A 2.646489,2.6460688 0 0 1 24,31.82944 2.646489,2.6460688 0 0 1 21.353511,29.183371 2.646489,2.6460688 0 0 1 24,26.537303 a 2.646489,2.6460688 0 0 1 2.646489,2.646068 z"
         id="path1628" /><path
         style="fill:none;stroke:#ffffff;stroke-width:1;stroke-linecap:round;stroke-linejoin:round;stroke-dashoffset:3.6;stroke-opacity:1"
         d="M 26.786209,35.638108 V 38.17965"
         id="path1626" /><path
         style="fill:none;stroke:#ffffff;stroke-width:1;stroke-linecap:round;stroke-linejoin:round;stroke-dashoffset:3.6;stroke-opacity:1"
         d="M 21.213792,35.638108 V 38.17965"
         id="path1624" /><path
         style="fill:none;stroke:#ffffff;stroke-width:1;stroke-linecap:round;stroke-linejoin:round;stroke-dashoffset:3.6;stroke-opacity:1"
         d="m 23.071264,36.127554 v 0"
         id="path1622" /><path
         style="fill:none;stroke:#ffffff;stroke-width:1;stroke-linecap:round;stroke-linejoin:round;stroke-dashoffset:3.6;stroke-opacity:1"
         d="m 24.928737,36.127554 v 0"
         id="path1620" /><path
         style="fill:none;stroke:#ffffff;stroke-width:1;stroke-linecap:round;stroke-linejoin:round;stroke-dashoffset:3.6;stroke-opacity:1"
         d="m 27.67823,25.662448 v 0"
         id="path1618" /><path
         style="fill:none;stroke:#ffffff;stroke-width:1;stroke-linecap:round;stroke-linejoin:round;stroke-dashoffset:3.6;stroke-opacity:1"
         d="m 23.071264,37.690204 v 0"
         id="path1616" /><path
         style="fill:none;stroke:#ffffff;stroke-width:1;stroke-linecap:round;stroke-linejoin:round;stroke-dashoffset:3.6;stroke-opacity:1"
         d="m 24.928737,37.690204 v 0"
         id="path1614" /></g><path
       style="fill:none;stroke:#ffffff;stroke-width:1;stroke-linecap:round;stroke-linejoin:round;stroke-dashoffset:3.6;stroke-opacity:1"
       d="M 16.040802,24.829875 H 9.2136712 c -0.8693941,0 -1.5693054,-0.6998 -1.5693054,-1.569057 V 7.0690562 c 0,-0.8692564 0.6999113,-1.5690567 1.5693054,-1.5690567 v 0 H 38.786328 c 0.869394,0 1.569306,0.6998003 1.569306,1.5690567 V 23.260818 c 0,0.869257 -0.699912,1.569057 -1.569306,1.569057 l -6.827132,10e-7"
       id="path1612" /><g
       id="g1650"><path
         style="fill:none;stroke:#ffffff;stroke-width:1;stroke-linecap:round;stroke-linejoin:round;stroke-dashoffset:3.6;stroke-opacity:1"
         d="M 15.211643,17.244147 A 10.624366,8.4672413 0 0 1 24,13.534852 a 10.624366,8.4672413 0 0 1 8.788356,3.709294"
         id="path1610" /><path
         style="fill:none;stroke:#ffffff;stroke-width:1;stroke-linecap:round;stroke-linejoin:round;stroke-dashoffset:3.6;stroke-opacity:1"
         d="M 18.900784,20.782228 A 6.6954646,5.4730477 0 0 1 24,18.856023 a 6.6954646,5.4730477 0 0 1 5.099215,1.926205"
         id="path1505" /></g></g></svg>

<?xml version="1.0" encoding="UTF-8"?><svg id="b" xmlns="http://www.w3.org/2000/svg" viewBox="0 0 48 48"><defs><style>.r{fill:none;stroke:#fff;stroke-linecap:round;stroke-linejoin:round;}</style></defs><g id="c"><g id="d"><path id="e" class="r" d="M19.8643,23.4694h8.2714c.8694,0,1.5693.6998,1.5693,1.5691v15.8925c0,.8693-.6999,1.5691-1.5693,1.5691h-8.2714c-.8694,0-1.5693-.6998-1.5693-1.5691v-15.8925c0-.8693.6999-1.5691,1.5693-1.5691Z"/><path id="f" class="r" d="M26.6465,29.1834c0,1.4614-1.1849,2.6461-2.6465,2.6461s-2.6465-1.1847-2.6465-2.6461c0-1.4614,1.1849-2.6461,2.6465-2.6461s2.6465,1.1847,2.6465,2.6461Z"/><path id="g" class="r" d="M26.7862,35.6381v2.5415"/><path id="h" class="r" d="M21.2138,35.6381v2.5415"/><path id="i" class="r" d="M23.0713,36.1276h0"/><path id="j" class="r" d="M24.9287,36.1276h0"/><path id="k" class="r" d="M27.6782,25.6624h0"/><path id="l" class="r" d="M23.0713,37.6902h0"/><path id="m" class="r" d="M24.9287,37.6902h0"/></g><path id="n" class="r" d="M16.0408,24.8299h-6.8271c-.8694,0-1.5693-.6998-1.5693-1.5691V7.0691c0-.8693.6999-1.5691,1.5693-1.5691h29.5727c.8694,0,1.5693.6998,1.5693,1.5691v16.1918c0,.8693-.6999,1.5691-1.5693,1.5691h-6.8271"/><g id="o"><path id="p" class="r" d="M15.2116,17.2441c1.9777-2.3202,5.2688-3.7093,8.7884-3.7093s6.8106,1.3891,8.7884,3.7093"/><path id="q" class="r" d="M18.9008,20.7822c1.2721-1.222,3.1362-1.9262,5.0992-1.9262s3.8271.7042,5.0992,1.9262"/></g></g></svg>
